svgs/sharp-regular/ruler-vertical.svg

<svg xmlns="http://www.w3.org/2000/svg" viewBox="0 0 256 512"><!--! Font Awesome Pro 6.6.0 by @fontawesome - https://fontawesome.com License - https://fontawesome.com/license (Commercial License) Copyright 2024 Fonticons, Inc. --><path d="M208 48l0 48-48 0-16 0 0 32 16 0 48 0 0 64-48 0-16 0 0 32 16 0 48 0 0 64-48 0-16 0 0 32 16 0 48 0 0 64-48 0-16 0 0 32 16 0 48 0 0 48L48 464 48 48l160 0zM48 0L0 0 0 48 0 464l0 48 48 0 160 0 48 0 0-48 0-416 0-48L208 0 48 0z"/></svg>

<svg xmlns="http://www.w3.org/2000/svg" viewBox="0 0 256 512"><!--! Font Awesome Pro 6.4.2 by @fontawesome - https://fontawesome.com License - https://fontawesome.com/license (Commercial License) Copyright 2023 Fonticons, Inc. --><path d="M208 48V96H160 144v32h16 48v64H160 144v32h16 48v64H160 144v32h16 48v64H160 144v32h16 48v48H48V48H208zM48 0H0V48 464v48H48 208h48V464 48 0H208 48z"/></svg>
